X: 1124
T: Humors of Ballymanus
R:slip jig
B:O'Neill's 1124
Z:Transcribed by Michael Hogan
M:9/8
L:1/8
K:D
  A2A AGF AGF | A2A AGF Bcd | A2A AGF AGF | B2B B2A Bcd :|
|:dfg afd cBA | dfg afd fga | dfg afd cBA | B2B B2A Bcd :|
|:FAF dAF dAG | FAF dAF Bcd | FAF dAF dAF | B2B B2A Bcd :|


